app/assets/images/niveauY1.svg

<svg width="48" height="48" viewBox="0 0 48 48" fill="none" xmlns="http://www.w3.org/2000/svg">
<path d="M15.848 12.4C15.976 12.4 16.08 12.4427 16.16 12.528C16.24 12.6134 16.28 12.72 16.28 12.848V17.512C16.28 17.6507 16.232 17.768 16.136 17.864C16.0453 17.9547 15.9307 18 15.792 18C15.7173 18 15.6427 17.9894 15.568 17.968C15.4987 17.9414 15.448 17.9067 15.416 17.864L12.48 14.136V17.552C12.48 17.68 12.4373 17.7867 12.352 17.872C12.272 17.9574 12.1653 18 12.032 18C11.904 18 11.8 17.9574 11.72 17.872C11.64 17.7867 11.6 17.68 11.6 17.552V12.888C11.6 12.7494 11.6453 12.6347 11.736 12.544C11.832 12.448 11.9493 12.4 12.088 12.4C12.168 12.4 12.2453 12.416 12.32 12.448C12.4 12.48 12.4587 12.5227 12.496 12.576L15.408 16.288V12.848C15.408 12.72 15.448 12.6134 15.528 12.528C15.6133 12.4427 15.72 12.4 15.848 12.4Z" fill="#6E84FE"/>
<path d="M18.3068 17.512C18.3068 17.6507 18.2615 17.768 18.1708 17.864C18.0802 17.9547 17.9655 18 17.8268 18C17.6882 18 17.5735 17.9547 17.4828 17.864C17.3922 17.768 17.3468 17.6507 17.3468 17.512V14.208C17.3468 14.0694 17.3922 13.9547 17.4828 13.864C17.5735 13.768 17.6882 13.72 17.8268 13.72C17.9655 13.72 18.0802 13.768 18.1708 13.864C18.2615 13.9547 18.3068 14.0694 18.3068 14.208V17.512ZM17.8188 13.2C17.6375 13.2 17.5095 13.1707 17.4348 13.112C17.3602 13.0534 17.3228 12.9494 17.3228 12.8V12.648C17.3228 12.4987 17.3628 12.3947 17.4428 12.336C17.5228 12.2774 17.6508 12.248 17.8268 12.248C18.0135 12.248 18.1442 12.2774 18.2188 12.336C18.2935 12.3947 18.3308 12.4987 18.3308 12.648V12.8C18.3308 12.9547 18.2908 13.0614 18.2108 13.12C18.1362 13.1734 18.0055 13.2 17.8188 13.2Z" fill="#6E84FE"/>
<path d="M22.5814 13.728C22.7094 13.728 22.8161 13.7707 22.9014 13.856C22.9868 13.936 23.0294 14.0374 23.0294 14.16C23.0294 14.224 23.0081 14.304 22.9654 14.4L21.4694 17.696C21.4321 17.7867 21.3761 17.8587 21.3014 17.912C21.2321 17.9654 21.1521 17.9947 21.0614 18L20.9894 18.008C20.8988 18.008 20.8134 17.9814 20.7334 17.928C20.6588 17.8694 20.6001 17.792 20.5574 17.696L19.0694 14.4C19.0321 14.3147 19.0134 14.2294 19.0134 14.144C19.0134 14.0374 19.0588 13.9414 19.1494 13.856C19.2401 13.7654 19.3521 13.72 19.4854 13.72C19.5868 13.72 19.6801 13.7467 19.7654 13.8C19.8508 13.8534 19.9148 13.928 19.9574 14.024L21.0614 16.552L22.1574 14.032C22.2001 13.9307 22.2588 13.8534 22.3334 13.8C22.4081 13.7467 22.4908 13.7227 22.5814 13.728Z" fill="#6E84FE"/>
<path d="M27.5866 15.76C27.5812 15.888 27.5306 15.992 27.4346 16.072C27.3386 16.152 27.2266 16.192 27.0986 16.192H24.4586C24.5226 16.5067 24.6692 16.7547 24.8986 16.936C25.1279 17.112 25.3866 17.2 25.6746 17.2C25.8932 17.2 26.0639 17.1814 26.1866 17.144C26.3092 17.1014 26.4052 17.0587 26.4746 17.016C26.5492 16.968 26.5999 16.936 26.6266 16.92C26.7226 16.872 26.8132 16.848 26.8986 16.848C27.0106 16.848 27.1066 16.888 27.1866 16.968C27.2666 17.048 27.3066 17.1414 27.3066 17.248C27.3066 17.392 27.2319 17.5227 27.0826 17.64C26.9332 17.7627 26.7332 17.8667 26.4826 17.952C26.2319 18.0374 25.9786 18.08 25.7226 18.08C25.2746 18.08 24.8826 17.9867 24.5466 17.8C24.2159 17.6134 23.9599 17.3574 23.7786 17.032C23.5972 16.7014 23.5066 16.3307 23.5066 15.92C23.5066 15.4614 23.6026 15.0587 23.7946 14.712C23.9866 14.3654 24.2399 14.1014 24.5546 13.92C24.8692 13.7334 25.2052 13.64 25.5626 13.64C25.9146 13.64 26.2452 13.736 26.5546 13.928C26.8692 14.12 27.1199 14.3787 27.3066 14.704C27.4932 15.0294 27.5866 15.3814 27.5866 15.76ZM25.5626 14.52C24.9439 14.52 24.5786 14.8107 24.4666 15.392H26.5626V15.336C26.5412 15.112 26.4319 14.92 26.2346 14.76C26.0372 14.6 25.8132 14.52 25.5626 14.52Z" fill="#6E84FE"/>
<path d="M31.8824 13.64C32.0211 13.64 32.1358 13.6854 32.2264 13.776C32.3171 13.8667 32.3624 13.984 32.3624 14.128V17.512C32.3624 17.6507 32.3171 17.768 32.2264 17.864C32.1358 17.9547 32.0211 18 31.8824 18C31.7438 18 31.6291 17.9547 31.5384 17.864C31.4531 17.7734 31.4078 17.6587 31.4024 17.52C31.2691 17.6747 31.0878 17.808 30.8584 17.92C30.6344 18.0267 30.3971 18.08 30.1464 18.08C29.7784 18.08 29.4451 17.9867 29.1464 17.8C28.8478 17.608 28.6104 17.344 28.4344 17.008C28.2638 16.672 28.1784 16.2907 28.1784 15.864C28.1784 15.4374 28.2638 15.056 28.4344 14.72C28.6051 14.3787 28.8371 14.1147 29.1304 13.928C29.4291 13.736 29.7571 13.64 30.1144 13.64C30.3704 13.64 30.6104 13.688 30.8344 13.784C31.0584 13.8747 31.2478 13.992 31.4024 14.136V14.128C31.4024 13.9894 31.4478 13.8747 31.5384 13.784C31.6291 13.688 31.7438 13.64 31.8824 13.64ZM30.2664 17.2C30.6131 17.2 30.8958 17.0747 31.1144 16.824C31.3331 16.568 31.4424 16.248 31.4424 15.864C31.4424 15.48 31.3331 15.16 31.1144 14.904C30.8958 14.648 30.6131 14.52 30.2664 14.52C29.9251 14.52 29.6451 14.648 29.4264 14.904C29.2078 15.16 29.0984 15.48 29.0984 15.864C29.0984 16.248 29.2051 16.568 29.4184 16.824C29.6371 17.0747 29.9198 17.2 30.2664 17.2Z" fill="#6E84FE"/>
<path d="M36.5007 13.72C36.6394 13.72 36.754 13.768 36.8447 13.864C36.9354 13.9547 36.9807 14.0694 36.9807 14.208V16.24C36.9807 16.816 36.8207 17.2667 36.5007 17.592C36.186 17.9174 35.7354 18.08 35.1487 18.08C34.562 18.08 34.1114 17.9174 33.7967 17.592C33.482 17.2667 33.3247 16.816 33.3247 16.24V14.208C33.3247 14.0694 33.37 13.9547 33.4607 13.864C33.5514 13.768 33.666 13.72 33.8047 13.72C33.9434 13.72 34.058 13.768 34.1487 13.864C34.2394 13.9547 34.2847 14.0694 34.2847 14.208V16.24C34.2847 16.5654 34.3567 16.808 34.5007 16.968C34.6447 17.1227 34.8607 17.2 35.1487 17.2C35.442 17.2 35.6607 17.1227 35.8047 16.968C35.9487 16.808 36.0207 16.5654 36.0207 16.24V14.208C36.0207 14.0694 36.066 13.9547 36.1567 13.864C36.2474 13.768 36.362 13.72 36.5007 13.72Z" fill="#6E84FE"/>
<path fill-rule="evenodd" clip-rule="evenodd" d="M24 45C35.598 45 45 35.598 45 24C45 12.402 35.598 3 24 3C12.402 3 3 12.402 3 24C3 35.598 12.402 45 24 45ZM24 48C37.2548 48 48 37.2548 48 24C48 10.7452 37.2548 0 24 0C10.7452 0 0 10.7452 0 24C0 37.2548 10.7452 48 24 48Z" fill="#6E84FE"/>
<path d="M19.201 21.5391C19.201 21.8191 19.124 22.0781 18.97 22.3161L14.581 28.5951V33.7191C14.581 34.0831 14.462 34.3911 14.224 34.6431C13.986 34.8811 13.699 35.0001 13.363 35.0001C13.013 35.0001 12.712 34.8811 12.46 34.6431C12.222 34.3911 12.103 34.0831 12.103 33.7191V28.3011L7.73499 22.5051C7.48299 22.1691 7.35699 21.8401 7.35699 21.5181C7.35699 21.1541 7.49699 20.8531 7.77699 20.6151C8.07099 20.3631 8.37899 20.2371 8.70099 20.2371C9.09299 20.2371 9.43599 20.4331 9.72999 20.8251L13.426 25.9281L16.891 20.8671C17.185 20.4471 17.535 20.2371 17.941 20.2371C18.277 20.2371 18.571 20.3631 18.823 20.6151C19.075 20.8671 19.201 21.1751 19.201 21.5391Z" fill="#6E84FE"/>
<path d="M24.3398 20.3001C24.6898 20.3001 24.9838 20.4261 25.2218 20.6781C25.4598 20.9161 25.5788 21.2171 25.5788 21.5811V33.7191C25.5788 34.0831 25.4458 34.3911 25.1798 34.6431C24.9138 34.8811 24.5848 35.0001 24.1928 35.0001C23.8008 35.0001 23.4788 34.8811 23.2268 34.6431C22.9748 34.3911 22.8488 34.0831 22.8488 33.7191V23.7651L21.5468 24.5631C21.3368 24.6891 21.1128 24.7521 20.8748 24.7521C20.5248 24.7521 20.2238 24.6191 19.9718 24.3531C19.7338 24.0871 19.6148 23.7931 19.6148 23.4711C19.6148 23.2471 19.6708 23.0371 19.7828 22.8411C19.9088 22.6451 20.0698 22.4911 20.2658 22.3791L23.4368 20.4891C23.6748 20.3631 23.9758 20.3001 24.3398 20.3001Z" fill="#6E84FE"/>
<path d="M37.7222 27.6501C38.0582 27.6501 38.3382 27.7621 38.5622 27.9861C38.7862 28.1961 38.8982 28.4691 38.8982 28.8051C38.8982 29.1411 38.7862 29.4211 38.5622 29.6451C38.3382 29.8551 38.0582 29.9601 37.7222 29.9601H34.7822V32.7111C34.7822 33.1031 34.6492 33.4251 34.3832 33.6771C34.1312 33.9291 33.8092 34.0551 33.4172 34.0551C33.0252 34.0551 32.6962 33.9291 32.4302 33.6771C32.1782 33.4251 32.0522 33.1031 32.0522 32.7111V29.9601H29.1752C28.8392 29.9601 28.5592 29.8481 28.3352 29.6241C28.1112 29.4001 27.9992 29.1201 27.9992 28.7841C27.9992 28.4481 28.1112 28.1751 28.3352 27.9651C28.5592 27.7551 28.8392 27.6501 29.1752 27.6501H32.0522V24.5211C32.0522 24.1291 32.1782 23.8071 32.4302 23.5551C32.6962 23.3031 33.0322 23.1771 33.4382 23.1771C33.8302 23.1771 34.1522 23.3031 34.4042 23.5551C34.6562 23.8071 34.7822 24.1291 34.7822 24.5211V27.6501H37.7222Z" fill="#6E84FE"/>
</svg>

<svg width="48" height="48" fill="none" xmlns="http://www.w3.org/2000/svg"><path d="M15.848 12.4c.128 0 .232.043.312.128a.45.45 0 01.12.32v4.664a.479.479 0 01-.488.488.81.81 0 01-.224-.032.333.333 0 01-.152-.104l-2.936-3.728v3.416a.434.434 0 01-.128.32.418.418 0 01-.32.128.408.408 0 01-.312-.128.45.45 0 01-.12-.32v-4.664a.479.479 0 01.488-.488c.08 0 .157.016.232.048.08.032.139.075.176.128l2.912 3.712v-3.44a.45.45 0 01.12-.32.434.434 0 01.32-.128zM18.307 17.512a.493.493 0 01-.136.352.466.466 0 01-.344.136.466.466 0 01-.344-.136.494.494 0 01-.136-.352v-3.304c0-.139.045-.253.136-.344a.453.453 0 01.344-.144c.138 0 .253.048.344.144.09.09.136.205.136.344v3.304zm-.488-4.312c-.181 0-.31-.03-.384-.088-.075-.059-.112-.163-.112-.312v-.152c0-.15.04-.253.12-.312.08-.059.208-.088.384-.088.186 0 .317.03.392.088.075.059.112.163.112.312v.152c0 .155-.04.261-.12.32-.075.053-.205.08-.392.08zM22.581 13.728c.128 0 .235.043.32.128.086.08.128.181.128.304a.62.62 0 01-.064.24l-1.496 3.296a.485.485 0 01-.408.304l-.072.008a.453.453 0 01-.256-.08.597.597 0 01-.176-.232L19.07 14.4a.634.634 0 01-.056-.256c0-.107.046-.203.136-.288a.457.457 0 01.336-.136c.102 0 .195.027.28.08.086.053.15.128.192.224l1.104 2.528 1.096-2.52a.529.529 0 01.176-.232.378.378 0 01.248-.072zM27.587 15.76a.411.411 0 01-.152.312.509.509 0 01-.336.12h-2.64c.064.315.21.563.44.744.229.176.488.264.776.264.218 0 .389-.019.512-.056a1.51 1.51 0 00.288-.128c.074-.048.125-.08.152-.096a.61.61 0 01.272-.072c.112 0 .208.04.288.12.08.08.12.173.12.28 0 .144-.075.275-.224.392-.15.123-.35.227-.6.312-.251.085-.504.128-.76.128-.448 0-.84-.093-1.176-.28a1.968 1.968 0 01-.768-.768 2.273 2.273 0 01-.272-1.112c0-.459.096-.861.288-1.208.192-.347.445-.61.76-.792.314-.187.65-.28 1.008-.28.352 0 .682.096.992.288.314.192.565.45.752.776.186.325.28.677.28 1.056zm-2.024-1.24c-.62 0-.984.29-1.096.872h2.096v-.056a.827.827 0 00-.328-.576 1.038 1.038 0 00-.672-.24zM31.882 13.64a.466.466 0 01.48.488v3.384a.493.493 0 01-.136.352.466.466 0 01-.344.136.466.466 0 01-.344-.136.513.513 0 01-.136-.344 1.676 1.676 0 01-.544.4c-.224.107-.46.16-.712.16-.368 0-.7-.093-1-.28a2.051 2.051 0 01-.712-.792 2.491 2.491 0 01-.256-1.144c0-.427.086-.808.256-1.144.171-.341.403-.605.696-.792.3-.192.627-.288.984-.288.256 0 .496.048.72.144.224.09.414.208.568.352v-.008c0-.139.046-.253.136-.344a.453.453 0 01.344-.144zm-1.616 3.56c.347 0 .63-.125.848-.376.22-.256.328-.576.328-.96s-.109-.704-.328-.96a1.063 1.063 0 00-.848-.384c-.34 0-.62.128-.84.384-.218.256-.328.576-.328.96s.107.704.32.96c.22.25.502.376.848.376zM36.5 13.72c.14 0 .254.048.345.144.09.09.136.205.136.344v2.032c0 .576-.16 1.027-.48 1.352-.315.325-.766.488-1.352.488-.587 0-1.038-.163-1.352-.488-.315-.325-.472-.776-.472-1.352v-2.032c0-.139.045-.253.136-.344a.453.453 0 01.344-.144c.138 0 .253.048.344.144.09.09.136.205.136.344v2.032c0 .325.072.568.216.728.144.155.36.232.648.232.293 0 .512-.077.656-.232.144-.16.216-.403.216-.728v-2.032c0-.139.045-.253.136-.344a.453.453 0 01.344-.144z" fill="#6E84FE"/><path fill-rule="evenodd" clip-rule="evenodd" d="M24 45c11.598 0 21-9.402 21-21S35.598 3 24 3 3 12.402 3 24s9.402 21 21 21zm0 3c13.255 0 24-10.745 24-24S37.255 0 24 0 0 10.745 0 24s10.745 24 24 24z" fill="#6E84FE"/><path d="M19.201 21.54c0 .28-.077.538-.231.776l-4.389 6.28v5.123c0 .364-.119.672-.357.924a1.173 1.173 0 01-.861.357 1.27 1.27 0 01-.903-.357 1.296 1.296 0 01-.357-.924v-5.418l-4.368-5.796c-.252-.336-.378-.665-.378-.987 0-.364.14-.665.42-.903.294-.252.602-.378.924-.378.392 0 .735.196 1.029.588l3.696 5.103 3.465-5.06c.294-.42.644-.63 1.05-.63.336 0 .63.125.882.377s.378.56.378.924zM24.34 20.3c.35 0 .644.126.882.378.238.238.357.54.357.903V33.72c0 .364-.133.672-.4.924-.265.238-.594.357-.986.357s-.714-.119-.966-.357a1.257 1.257 0 01-.378-.924v-9.954l-1.302.798c-.21.126-.434.19-.672.19-.35 0-.651-.134-.903-.4-.238-.266-.357-.56-.357-.882 0-.224.056-.434.168-.63.126-.196.287-.35.483-.462l3.17-1.89c.239-.126.54-.189.904-.189zM37.722 27.65c.336 0 .616.112.84.336.224.21.336.483.336.82 0 .335-.112.615-.336.84a1.18 1.18 0 01-.84.314h-2.94v2.751c0 .392-.133.714-.399.966-.252.252-.574.378-.966.378a1.38 1.38 0 01-.987-.378c-.252-.252-.378-.574-.378-.966v-2.75h-2.877a1.14 1.14 0 01-.84-.337 1.14 1.14 0 01-.336-.84c0-.336.112-.609.336-.819a1.18 1.18 0 01.84-.315h2.877v-3.129c0-.392.126-.714.378-.966.266-.252.602-.378 1.008-.378.392 0 .714.126.966.378s.378.574.378.966v3.13h2.94z" fill="#6E84FE"/></svg>
